images_elementary_svg/cmd/32/dbqueryrename.svg

<svg height="32" width="32" xmlns="http://www.w3.org/2000/svg" xmlns:xlink="http://www.w3.org/1999/xlink"><radialGradient id="a" cx="605.714" cy="486.648" gradientTransform="matrix(.019 0 0 .02024 18.043 18.08)" gradientUnits="userSpaceOnUse" r="117.143" xlink:href="#b"/><linearGradient id="b"><stop offset="0"/><stop offset="1" stop-opacity="0"/></linearGradient><linearGradient id="c" gradientTransform="matrix(.45813 0 0 .4389 -31.62 14.933)" gradientUnits="userSpaceOnUse" spreadMethod="reflect" x1="102.308" x2="102.308" y1="-2.393" y2="-24.582"><stop offset="0" stop-color="#a5a6a8"/><stop offset="1" stop-color="#e8e8e8"/></linearGradient><linearGradient id="d" gradientTransform="matrix(.45813 0 0 .4389 -31.62 14.933)" gradientUnits="userSpaceOnUse" x1="109.956" x2="109.956" y1="-24.911" y2="-2.376"><stop offset="0" stop-color="#b3b3b3"/><stop offset="1" stop-color="#dadada"/></linearGradient><linearGradient id="e" gradientTransform="matrix(.45783 0 0 .4323 -31.592 18.912)" gradientUnits="userSpaceOnUse" spreadMethod="reflect" x1="103.95" x2="89.424" xlink:href="#f" y1="-7.666" y2="-7.666"/><linearGradient id="f"><stop offset="0" stop-color="#868688"/><stop offset="1" stop-color="#d9d9da"/></linearGradient><linearGradient id="g" gradientUnits="userSpaceOnUse" x1="10.861" x2="10.861" xlink:href="#h" y1="12.991" y2="18"/><linearGradient id="h"><stop offset="0" stop-color="#a0a0a0"/><stop offset="1" stop-color="#4a4a4a"/></linearGradient><linearGradient id="i" gradientTransform="matrix(.45783 0 0 .4323 -31.592 24.912)" gradientUnits="userSpaceOnUse" spreadMethod="reflect" x1="103.95" x2="89.424" xlink:href="#f" y1="-7.666" y2="-7.666"/><linearGradient id="j" gradientUnits="userSpaceOnUse" x1="10.861" x2="10.861" xlink:href="#h" y1="18.991" y2="24"/><linearGradient id="k" gradientTransform="matrix(.45783 0 0 .4323 -31.592 30.912)" gradientUnits="userSpaceOnUse" spreadMethod="reflect" x1="103.95" x2="89.424" xlink:href="#f" y1="-7.666" y2="-7.666"/><linearGradient id="l" gradientUnits="userSpaceOnUse" x1="10.861" x2="10.861" xlink:href="#h" y1="24.991" y2="30"/><linearGradient id="m" gradientTransform="matrix(.6 0 0 .60526 1.6 2.17)" gradientUnits="userSpaceOnUse" x1="21.381" x2="21.381" y1="5.052" y2="44.137"><stop offset="0" stop-color="#fff"/><stop offset=".081" stop-color="#fff" stop-opacity=".235"/><stop offset=".923" stop-color="#fff" stop-opacity=".157"/><stop offset="1" stop-color="#fff" stop-opacity=".392"/></linearGradient><radialGradient id="n" cx="23.335" cy="41.636" gradientTransform="matrix(.57452 0 0 .22094 2.594 17.8)" gradientUnits="userSpaceOnUse" r="22.627" xlink:href="#b"/><path d="m29 27c0 2.76-5.82 5-13 5s-13-2.24-13-5 5.82-5 13-5 13 2.24 13 5z" fill="url(#n)" fill-rule="evenodd" opacity=".3"/><path d="m27.49 25.068c0 2.446-5.15 4.432-11.493 4.432s-11.492-1.986-11.492-4.432c.114-5.47-1.405-4.34 11.492-4.433 13.193-.095 11.33-1.126 11.493 4.433z" fill="url(#k)" stroke="url(#l)"/><path d="m27.5 21c0 2.485-5.15 4.5-11.5 4.5s-11.5-2.015-11.5-4.5 5.15-4.5 11.5-4.5 11.5 2.015 11.5 4.5z" fill="#868688" stroke="#d8d8d8"/><path d="m27.49 19.068c0 2.446-5.15 4.432-11.493 4.432s-11.492-1.986-11.492-4.432c.114-5.47-1.405-4.34 11.492-4.433 13.193-.095 11.33-1.126 11.493 4.433z" fill="url(#i)" stroke="url(#j)"/><path d="m27.5 15c0 2.485-5.15 4.5-11.5 4.5s-11.5-2.015-11.5-4.5 5.15-4.5 11.5-4.5 11.5 2.015 11.5 4.5z" fill="#868688" stroke="#d8d8d8"/><path d="m27.49 13.068c0 2.446-5.15 4.432-11.493 4.432s-11.492-1.986-11.492-4.432c.114-5.47-1.405-4.34 11.492-4.432 13.193-.096 11.33-1.126 11.493 4.432z" fill="url(#e)" stroke="url(#g)"/><path d="m27.5 9c0 2.485-5.15 4.5-11.5 4.5s-11.5-2.015-11.5-4.5 5.15-4.5 11.5-4.5 11.5 2.015 11.5 4.5z" fill="url(#c)" stroke="url(#d)"/><rect fill="none" height="23" opacity=".5" rx="17.5" ry="4" stroke="url(#m)" width="21" x="5.5" y="5.5"/><path d="m29.5 25.5v4.915c.98.01 2.367-1.1 2.367-2.458s-1.093-2.457-2.367-2.457z" fill="url(#a)" opacity=".15"/><path d="m23 1v3h2l1 1v21l-1 1h-2v3h9v-3h-2l-1-1v-21l1-1h2v-3z" fill-rule="evenodd" opacity=".52"/><path d="m24 2.51 2.17-.016s1.335-.048 1.333 1.286l-.034 22.853s-.138 1.825-1.47 1.86l-2 .05m7-26.015-2.187-.034s-1.332-.048-1.332 1.286l-.033 22.853s.1 1.86 1.433 1.86h2.12" fill="none" stroke="#fff"/></svg>

<svg xmlns="http://www.w3.org/2000/svg" xmlns:xlink="http://www.w3.org/1999/xlink" height="32" width="32"><defs><linearGradient id="a"><stop offset="0" stop-color="#181818"/><stop offset=".135" stop-color="#dbdbdb"/><stop offset=".202" stop-color="#a4a4a4"/><stop offset=".27" stop-color="#fff"/><stop offset=".447" stop-color="#8d8d8d"/><stop offset=".571" stop-color="#959595"/><stop offset=".72" stop-color="#cecece"/><stop offset="1" stop-color="#181818"/></linearGradient><linearGradient id="b"><stop offset="0" stop-color="#565656"/><stop offset=".5" stop-color="#9a9a9a"/><stop offset="1" stop-color="#545454"/></linearGradient><linearGradient id="c"><stop offset="0" stop-color="#b1b1b1"/><stop offset=".5" stop-color="#fff"/><stop offset="1" stop-color="#8f8f8f"/></linearGradient><linearGradient id="d"><stop offset="0" stop-color="#ece5a5"/><stop offset="1" stop-color="#fcfbf2"/></linearGradient><linearGradient id="e"><stop offset="0" stop-color="#dbce48"/><stop offset="1" stop-color="#c5b625"/></linearGradient><radialGradient id="t" cx="605.714" cy="486.648" gradientTransform="matrix(.019 0 0 .02024 18.043 18.08)" gradientUnits="userSpaceOnUse" r="117.143" xlink:href="#f"/><linearGradient id="f"><stop offset="0"/><stop offset="1" stop-opacity="0"/></linearGradient></defs><linearGradient id="q" gradientTransform="matrix(.45813 0 0 .4389 -31.62 14.933)" gradientUnits="userSpaceOnUse" spreadMethod="reflect" x1="102.308" x2="102.308" y1="-2.393" y2="-24.582"><stop offset="0" stop-color="#a5a6a8"/><stop offset="1" stop-color="#e8e8e8"/></linearGradient><linearGradient id="r" gradientTransform="matrix(.45813 0 0 .4389 -31.62 14.933)" gradientUnits="userSpaceOnUse" x1="109.956" x2="109.956" y1="-24.911" y2="-2.376"><stop offset="0" stop-color="#b3b3b3"/><stop offset="1" stop-color="#dadada"/></linearGradient><linearGradient id="o" gradientTransform="matrix(.45783 0 0 .4323 -31.592 18.912)" gradientUnits="userSpaceOnUse" spreadMethod="reflect" x1="103.95" x2="89.424" xlink:href="#g" y1="-7.666" y2="-7.666"/><linearGradient id="g"><stop offset="0" stop-color="#868688"/><stop offset="1" stop-color="#d9d9da"/></linearGradient><linearGradient id="p" gradientUnits="userSpaceOnUse" x1="10.861" x2="10.861" xlink:href="#h" y1="12.991" y2="18"/><linearGradient id="h"><stop offset="0" stop-color="#a0a0a0"/><stop offset="1" stop-color="#4a4a4a"/></linearGradient><linearGradient id="m" gradientTransform="matrix(.45783 0 0 .4323 -31.592 24.912)" gradientUnits="userSpaceOnUse" spreadMethod="reflect" x1="103.95" x2="89.424" xlink:href="#g" y1="-7.666" y2="-7.666"/><linearGradient id="n" gradientUnits="userSpaceOnUse" x1="10.861" x2="10.861" xlink:href="#h" y1="18.991" y2="24"/><linearGradient id="k" gradientTransform="matrix(.45783 0 0 .4323 -31.592 30.912)" gradientUnits="userSpaceOnUse" spreadMethod="reflect" x1="103.95" x2="89.424" xlink:href="#g" y1="-7.666" y2="-7.666"/><linearGradient id="l" gradientUnits="userSpaceOnUse" x1="10.861" x2="10.861" xlink:href="#h" y1="24.991" y2="30"/><linearGradient id="i"><stop offset="0"/><stop offset="1" stop-opacity="0"/></linearGradient><linearGradient id="s" gradientTransform="matrix(.6 0 0 .60526 1.6 2.17)" gradientUnits="userSpaceOnUse" x1="21.381" x2="21.381" y1="5.052" y2="44.137"><stop offset="0" stop-color="#fff"/><stop offset=".081" stop-color="#fff" stop-opacity=".235"/><stop offset=".923" stop-color="#fff" stop-opacity=".157"/><stop offset="1" stop-color="#fff" stop-opacity=".392"/></linearGradient><radialGradient id="j" cx="23.335" cy="41.636" gradientTransform="matrix(.57452 0 0 .22094 2.594 17.8)" gradientUnits="userSpaceOnUse" r="22.627" xlink:href="#i"/><path d="M29 27c0 2.76-5.82 5-13 5S3 29.76 3 27s5.82-5 13-5 13 2.24 13 5z" fill="url(#j)" fill-rule="evenodd" opacity=".3"/><path d="M27.49 25.068c0 2.446-5.15 4.432-11.493 4.432S4.505 27.514 4.505 25.068c.114-5.47-1.405-4.34 11.492-4.433 13.193-.095 11.33-1.126 11.493 4.433z" fill="url(#k)" stroke="url(#l)"/><path d="M27.5 21c0 2.485-5.15 4.5-11.5 4.5S4.5 23.485 4.5 21s5.15-4.5 11.5-4.5 11.5 2.015 11.5 4.5z" fill="#868688" stroke="#d8d8d8"/><path d="M27.49 19.068c0 2.446-5.15 4.432-11.493 4.432S4.505 21.514 4.505 19.068c.114-5.47-1.405-4.34 11.492-4.433 13.193-.095 11.33-1.126 11.493 4.433z" fill="url(#m)" stroke="url(#n)"/><path d="M27.5 15c0 2.485-5.15 4.5-11.5 4.5S4.5 17.485 4.5 15s5.15-4.5 11.5-4.5 11.5 2.015 11.5 4.5z" fill="#868688" stroke="#d8d8d8"/><path d="M27.49 13.068c0 2.446-5.15 4.432-11.493 4.432S4.505 15.514 4.505 13.068c.114-5.47-1.405-4.34 11.492-4.432C29.19 8.54 27.327 7.51 27.49 13.068z" fill="url(#o)" stroke="url(#p)"/><path d="M27.5 9c0 2.485-5.15 4.5-11.5 4.5S4.5 11.485 4.5 9 9.65 4.5 16 4.5 27.5 6.515 27.5 9z" fill="url(#q)" stroke="url(#r)"/><rect fill="none" height="23" opacity=".5" rx="17.5" ry="4" stroke="url(#s)" width="21" x="5.5" y="5.5"/><path d="M29.5 25.5v4.915c.98.01 2.367-1.1 2.367-2.458S30.774 25.5 29.5 25.5z" opacity=".15" fill="url(#t)"/><path d="M23 1v3h2l1 1v21l-1 1h-2v3h9v-3h-2l-1-1V5l1-1h2V1z" opacity=".52" fill-rule="evenodd"/><path d="M24 2.51l2.17-.016s1.335-.048 1.333 1.286l-.034 22.853s-.138 1.825-1.47 1.86l-2 .05m7-26.015l-2.187-.034S27.48 2.446 27.48 3.78l-.033 22.853s.1 1.86 1.433 1.86H31" fill="none" stroke="#fff"/></svg>
